X:120
T:Quadrille. JMT.120
M:6/8
L:1/8
Q:3/8=110
S:J.Moore,Tyneside,1841.(84b)
R:.Quadrille
O:England
A:Northumbria
Z:vmp.Chris Partington
K:G
d | (d2g) B2d | (GB)G DGB | (dc)A (dc)A | (e2d) B2d | !
” for”(d2g) (B2d) | (GB)G DGB | dcA e2d | G3 G2 :|!
|:” pia”B | (cB)A (ed)c | d2B g2g | fed cBA | (Bcd) A2B | !
” for”cBA edc | d2B g2g | (fe)d (cB)A | G3 ” DC”G2 😐

